svg/editor/letter_spacing_line.svg

<?xml version="1.0" encoding="UTF-8"?>
<svg width="24px" height="24px" viewBox="0 0 24 24" version="1.1" xmlns="http://www.w3.org/2000/svg" xmlns:xlink="http://www.w3.org/1999/xlink">
    <title>letter_spacing_line</title>
    <g id="页面-1" stroke="none" stroke-width="1" fill="none" fill-rule="evenodd">
        <g id="Editor" transform="translate(-288.000000, -192.000000)">
            <g id="letter_spacing_line" transform="translate(288.000000, 192.000000)">
                 <path d="M24,0 L24,24 L0,24 L0,0 L24,0 Z M12.5934901,23.257841 L12.5819402,23.2595131 L12.5108777,23.2950439 L12.4918791,23.2987469 L12.4918791,23.2987469 L12.4767152,23.2950439 L12.4056548,23.2595131 C12.3958229,23.2563662 12.3870493,23.2590235 12.3821421,23.2649074 L12.3780323,23.275831 L12.360941,23.7031097 L12.3658947,23.7234994 L12.3769048,23.7357139 L12.4804777,23.8096931 L12.4953491,23.8136134 L12.4953491,23.8136134 L12.5071152,23.8096931 L12.6106902,23.7357139 L12.6232938,23.7196733 L12.6232938,23.7196733 L12.6266527,23.7031097 L12.609561,23.275831 C12.6075724,23.2657013 12.6010112,23.2592993 12.5934901,23.257841 L12.5934901,23.257841 Z M12.8583906,23.1452862 L12.8445485,23.1473072 L12.6598443,23.2396597 L12.6498822,23.2499052 L12.6498822,23.2499052 L12.6471943,23.2611114 L12.6650943,23.6906389 L12.6699349,23.7034178 L12.6699349,23.7034178 L12.678386,23.7104931 L12.8793402,23.8032389 C12.8914285,23.8068999 12.9022333,23.8029875 12.9078286,23.7952264 L12.9118235,23.7811639 L12.8776777,23.1665331 C12.8752882,23.1545897 12.8674102,23.1470016 12.8583906,23.1452862 L12.8583906,23.1452862 Z M12.1430473,23.1473072 C12.1332178,23.1423925 12.1221763,23.1452606 12.1156365,23.1525954 L12.1099173,23.1665331 L12.0757714,23.7811639 C12.0751323,23.7926639 12.0828099,23.8018602 12.0926481,23.8045676 L12.108256,23.8032389 L12.3092106,23.7104931 L12.3186497,23.7024347 L12.3186497,23.7024347 L12.3225043,23.6906389 L12.340401,23.2611114 L12.337245,23.2485176 L12.337245,23.2485176 L12.3277531,23.2396597 L12.1430473,23.1473072 Z" id="MingCute" fill-rule="nonzero"></path>
                <path d="M6.82843,15.1716 C7.21895,15.5621 7.21895,16.1952 6.82843,16.5858 L6.41421,17 L17.5858,17 L17.1716,16.5858 C16.781,16.1952 16.781,15.5621 17.1716,15.1716 C17.5621,14.781 18.1953,14.781 18.5858,15.1716 L20.7071,17.2929 C21.0976,17.6834 21.0976,18.3166 20.7071,18.7071 L18.5858,20.8284 C18.1953,21.2189 17.5621,21.2189 17.1716,20.8284 C16.781,20.4379 16.781,19.8047 17.1716,19.4142 L17.5858,19 L6.41421,19 L6.82843,19.4142 C7.21895,19.8047 7.21895,20.4379 6.82843,20.8284 C6.4379,21.2189 5.80474,21.2189 5.41421,20.8284 L3.29289,18.7071 C2.90237,18.3166 2.90237,17.6834 3.29289,17.2929 L5.41421,15.1716 C5.80474,14.781 6.4379,14.781 6.82843,15.1716 Z M15,3 C15.51285,3 15.9355092,3.38604429 15.9932725,3.88337975 L16,4 L16,7.33682 C16.4547,7.12085 16.9632,7 17.5,7 C19.433,7 21,8.567 21,10.5 C21,12.433 19.433,14 17.5,14 C16.8915,14 16.3192,13.8447 15.8207,13.5716 C15.64,13.8306 15.3398,14 15,14 C14.48715,14 14.0644908,13.613973 14.0067275,13.1166239 L14,13 L14,4 C14,3.44772 14.4477,3 15,3 Z M8.00002,3 C8.66289,3 9.26262643,3.3778702 9.55207479,3.9645441 L9.61325,4.10356 L12.932,12.6376 C13.1322,13.1523 12.8772,13.7318 12.3625,13.932 C11.8844714,14.1179 11.3506556,13.9113061 11.1165438,13.4686665 L11.068,13.3624 L10.1493,11 L5.85076,11 L4.93203,13.3624 C4.73186,13.8772 4.15231,14.1322 3.63758,13.932 C3.15961643,13.7461 2.90560372,13.2331505 3.03202209,12.7487228 L3.06802,12.6376 L6.3868,4.10356 C6.64553,3.43824 7.28617,3 8.00002,3 Z M17.5,9 C16.6716,9 16,9.67157 16,10.5 C16,11.3284 16.6716,12 17.5,12 C18.3285,12 19,11.3284 19,10.5 C19,9.67157 18.3285,9 17.5,9 Z M8.00002,5.47332 L6.62854,9 L9.37151,9 L8.00002,5.47332 Z" id="形状" fill="#09244B"></path>
            </g>
        </g>
    </g>
</svg>

<svg xmlns="http://www.w3.org/2000/svg" width="24" height="24"><g fill="none" fill-rule="evenodd"><path d="M24 0v24H0V0h24ZM12.593 23.258l-.011.002-.071.035-.02.004-.014-.004-.071-.035c-.01-.004-.019-.001-.024.005l-.004.01-.017.428.005.02.01.013.104.074.015.004.012-.004.104-.074.012-.016.004-.017-.017-.427c-.002-.01-.009-.017-.017-.018Zm.265-.113-.013.002-.185.093-.01.01-.003.011.018.43.005.012.008.007.201.093c.012.004.023 0 .029-.008l.004-.014-.034-.614c-.003-.012-.01-.02-.02-.022Zm-.715.002a.023.023 0 0 0-.027.006l-.006.014-.034.614c0 .012.007.02.017.024l.015-.002.201-.093.01-.008.004-.011.017-.43-.003-.012-.01-.01-.184-.092Z"/><path fill="#09244B" d="M6.828 15.172a1 1 0 0 1 0 1.414L6.414 17h11.172l-.414-.414a1 1 0 1 1 1.414-1.414l2.121 2.12a1 1 0 0 1 0 1.415l-2.121 2.121a1 1 0 0 1-1.414-1.414l.414-.414H6.414l.414.414a1 1 0 1 1-1.414 1.414l-2.121-2.12a1 1 0 0 1 0-1.415l2.121-2.121a1 1 0 0 1 1.414 0ZM15 3a1 1 0 0 1 .993.883L16 4v3.337a3.5 3.5 0 1 1-.18 6.235.999.999 0 0 1-1.813-.455L14 13V4a1 1 0 0 1 1-1ZM8 3c.663 0 1.263.378 1.552.965l.061.139 3.319 8.534a1 1 0 0 1-1.815.83l-.049-.106L10.149 11H5.851l-.919 2.362a1 1 0 0 1-1.9-.613l.036-.111 3.319-8.534A1.73 1.73 0 0 1 8 3Zm9.5 6a1.5 1.5 0 1 0 0 3 1.5 1.5 0 0 0 0-3ZM8 5.473 6.629 9h2.743L8 5.473Z"/></g></svg>
